src/cmd/lc_graphicfiltersolarize.svg

<svg viewBox="0 0 24 24" xmlns="http://www.w3.org/2000/svg"><path d="m19 4c-.552285 0-1 .4477104-1 1s.447715 1 1 1 1-.4477104 1-1-.447715-1-1-1zm0 4c-.552285 0-1 .4477153-1 1s.447715 1 1 1 1-.4477153 1-1-.447715-1-1-1zm0 4c-.552285 0-1 .447715-1 1s.447715 1 1 1 1-.447715 1-1-.447715-1-1-1z" fill="#e95420"/><path d="m11.5 4v1.8125h1v-1.8125zm-4.8125 1.96875-.71875.71875 1.28125 1.3125.71875-.75zm10.625 0-1.28125 1.28125.71875.75 1.28125-1.3125zm-5.3125 1.03125c-2.761424 0-5 2.2386-5 5s2.238576 5 5 5 5-2.2386 5-5-2.238576-5-5-5zm-8 4.5v1h1.8125v-1zm3.25 4.53125-1.28125 1.28125.71875.71875 1.28125-1.28125zm9.5 0-.71875.71875 1.28125 1.28125.71875-.71875zm-5.25 2.15625v1.8125h1v-1.8125z" fill="#232629"/></svg>

<?xml version="1.0" encoding="UTF-8" standalone="no"?>
<svg
   xmlns:dc="http://purl.org/dc/elements/1.1/"
   xmlns:cc="http://creativecommons.org/ns#"
   xmlns:rdf="http://www.w3.org/1999/02/22-rdf-syntax-ns#"
   xmlns:svg="http://www.w3.org/2000/svg"
   xmlns="http://www.w3.org/2000/svg"
   xmlns:sodipodi="http://sodipodi.sourceforge.net/DTD/sodipodi-0.dtd"
   xmlns:inkscape="http://www.inkscape.org/namespaces/inkscape"
   viewBox="0 0 24 24"
   version="1.1"
   id="svg6"
   sodipodi:docname="lc_graphicfiltersolarize.svg"
   inkscape:version="0.92.4 (5da689c313, 2019-01-14)">
  <metadata
     id="metadata12">
    <rdf:RDF>
      <cc:Work
         rdf:about="">
        <dc:format>image/svg+xml</dc:format>
        <dc:type
           rdf:resource="http://purl.org/dc/dcmitype/StillImage" />
      </cc:Work>
    </rdf:RDF>
  </metadata>
  <defs
     id="defs10" />
  <sodipodi:namedview
     pagecolor="#ffffff"
     bordercolor="#666666"
     borderopacity="1"
     objecttolerance="10"
     gridtolerance="10"
     guidetolerance="10"
     inkscape:pageopacity="0"
     inkscape:pageshadow="2"
     inkscape:window-width="1920"
     inkscape:window-height="1011"
     id="namedview8"
     showgrid="true"
     inkscape:zoom="39.333333"
     inkscape:cx="14.410879"
     inkscape:cy="12.130613"
     inkscape:window-x="0"
     inkscape:window-y="32"
     inkscape:window-maximized="1"
     inkscape:current-layer="svg6">
    <inkscape:grid
       type="xygrid"
       id="grid822" />
  </sodipodi:namedview>
  <path
     id="path840"
     d="m 18.1875,11.5 v 1 H 20 v -1 z M 11.5,18.1875 V 20 h 1 v -1.8125 z m 5.25,-2.15625 -0.71875,0.71875 1.28125,1.28125 0.71875,-0.71875 z m -9.5,0 L 5.96875,17.3125 6.6875,18.03125 7.96875,16.75 Z M 4,11.5 v 1 h 1.8125 v -1 z M 12,7 c -2.761424,0 -5,2.2386 -5,5 0,2.7614 2.238576,5 5,5 2.761424,0 5,-2.2386 5,-5 C 17,9.2386 14.761424,7 12,7 Z M 17.3125,5.96875 16.03125,7.25 16.75,8 18.03125,6.6875 Z m -10.625,0 L 5.96875,6.6875 7.25,8 7.96875,7.25 Z M 11.5,4 v 1.8125 h 1 V 4 Z"
     style="fill:#232629;fill-opacity:1" />
</svg>
